public/avatar/item1/70.svg

<svg xmlns:xlink="http://www.w3.org/1999/xlink" height="65.4" width="80.15" xmlns="http://www.w3.org/2000/svg"><use height="25.55" transform="translate(5.5 15.7)" width="16.95" xlink:href="#a"/><defs><g id="a" fill-rule="evenodd"><path d="M-16.15 3.1q-2.3 1.05-2.1 4.75l-.1.6q-.45-1.05-.35-2l-.4-1.5-.2-.6-.3.45-.05.15h-.1l-.25.5v.05q-.2.6 0 1.3.25.25.25.8l.35.6-.1.1-.45-.5q-.4-.25-.6-.9l-.4-.05q-.4.95.45 1.8l.45.5 1-.2.35.5h-.1l-.45.1-.5.15-.2.05H-20l.05.05v.05l.2.25 1.55 1.65.1-.15.05-.05.5.9.05.05.3.2.2.1h.05v-.05q.05-1-.5-1.7l.05-.05.2-.2v-.05l.1.3.05.05h.05l.15-.05.15.1.15-.3.25-.15.2-.15.8-.65.15-.15.2-.2.35-.15.25-.2-.05-.05q-.15-.15-.25-.15h-.1l-.4.05-1.35.5-.2.25v-.05l-.05-.25h-.1v-.05l-.05-.05.75-1v-.05q.7-.85 1.75-1.45l.15-.05.3-.15.05-.05q.45-.3.3-.65-.9.15-1.7.55-1 .5-1.85 1.35l.5-.65-.1.05-.2.1-.05-.05-.25.55-.15.35-.05.2h-.05l.05-.95 1.5-2.85.3-.3.7-.5q.75-.55 1-1.15l-.8.05-1.4.35m-5.8 6.85v-.1l.05-.15.05-.15.3-.25h.2l.15-.05.5-.1.25.15.1-.05-.35-.1q-.9-.5-.85-2.1.05-.5.55-.6l.5.05q-.15-1.1.6-2.35l.3-.25q.9.4 1.15 1.25Q-18 4-16.85 2.9l.5-.45.55-.3.05-.05.45-.15.15-.05 1.4.15.15.05q-.55 2.2-2.55 4.25l-.55.6.15.2q.8-1 1.9-1.65l.5-.2 1.1.15.05.05q-.45 1.7-1.95 3.1l.35-.15q.7-.15 1.05.5V9l-.7.6.2.1.1.05 2 1.5.1.1.15-.1q.05-.15.25-.15 2.6 2.25 2.25 5.9v.1q-.05.35-.25.25l-.3 1.9Q-8.7 22-11.8 22.8l-.15.15-1.8 1.45-.4.2-.35.15.05.35v.05q0 1.15-1.75 2.15-.4.25-.65-.25l-.55-1.55v-.05h-.1l-.05.25q-.2.85-1.6 1.65-.35.25-.6-.25-.55-1-.55-1.8v-.25l-.15-.05-.15-.1-.4-.15q-1.45-.6-2.6-1.8l-.15-.15q-2.65-.3-2.3-3.25l.2-.65-.2-1.75.05-.75.35-1.75.3-.8.25-.6.9-1.3.6-.7.6-.55.6-.4.35-.3h.1v-.05m1.85 2v.1h.05l.15.2-.2-.3m5.4-1.95-1.4 1.4-.05.05 3.6.1h.15l.1.05q-1.1-1.1-2.3-1.6h-.1m4.15 7.45-.15-.2q-2.35-.35-4.15-1.9l-.8-.6-.45-.2-1.1-.55-.95-.6q-1.75-.8-2.9-2.15l-.1-.15-.3-.4-.05-.15-.4.1v.05q-1.2.4-1.9 1.5l-1.35 2.45q-.7 1.7-.05 3.15l.2 1.25-.05.15q-1.15 2.2 1.1 2.9.05-.15-.05-.3l-.3-.65v-.35l1.25 1.55.15.15.35.3.3.25.35.25 1.35.75.25.1.2.05.05.05q.35-.55 1.1-.95.9.65 1.25 1.3h.4l.05-.1q.2-.95 1.25-1.55l.75.65.4.5.4-.2.35-.15 1.8-1.4 1.55-2.05-.2 1.25h.1q1.55-.95.45-2.2l.35-1.95h-.25l-.25.05m-9.6-4.05.1.15-.2 1.1.1-1.25m-.5 5.05-.05-.2.15-.4-.1.6m1.55 5.65h-.05q-.85 1.45.35 2.25l.05-.05q.15-1.3-.35-2.2m.85.65q-.55.45 0 1.05l.05-.05q.4-.65-.05-1.05v.05m1.9.95.05-.1q.05-.65-.3-1.1-.8.85.25 1.2m.8.45.1-.05q.35-1.35-.35-2.35-.75 1.45.25 2.4" fill="#34241c" transform="translate(26.1 -1.9)"/><path d="M-16.15 3.1q-2.3 1.2-1.75 3.75l.3-.2q.4-2.75 3.15-3.6v-.1q-.15-.15-.3-.2l.8-.05q-.25.6-1 1.15l-.7.5-.3.3-1.5 2.85-.05.95v-.5q-.4.65-.25 1.5.85-1.8 2.95-2.4l.4-.15q-1.05.6-1.75 1.45v.05l-.75 1-.05.05H-17l.15.05h.1l.05.25-.05.05-.35.55-.05.05h.1l1.75-.5-.8.65-.2.15-.25.15-.3.2-.15.05h-.05l-.05-.05-.1-.3v.05l-.2.2h-.1l.05.05q.55.7.5 1.7l-.05.05-.2-.1-.3-.2-.05-.05-.5-.9-.05.05-.1.15-1.55-1.65-.2-.25v-.1l.2-.05.5-.15.45-.1h.1l-.35-.5-1 .2-.45-.5q-.85-.85-.45-1.8l.4.05q.2.65.6.9l.45.5.1-.1-.35-.6q0-.55-.25-.8-.2-.7 0-1.3.05.75.75 1.45V6.9q.35-1.3-.2-2.3l-.15.2.3-.45.2.6.4 1.5q-.1.95.35 2l.1-.6q-.2-3.7 2.1-4.75m-.7 19.1q2.3-.25 4.05-1.9 1.35-1.25 1.8-2.75l.45-.1.25-.05h.25l-.35 1.95q1.1 1.25-.45 2.2h-.1l.2-1.25-1.55 2.05-1.8 1.4-.35.15-.4.2-.4-.5-.75-.65q-1.05.6-1.25 1.55l-.05.1h-.4q-.35-.65-1.25-1.3-.75.4-1.1.95l-.05-.05-.2-.05-.25-.1-1.35-.75-.35-.25-.3-.25-.35-.3-.15-.15-1.25-1.55v.35l.3.65q.1.15.05.3-2.25-.7-1.1-2.9l.05-.15-.2-1.25q-.65-1.45.05-3.15l1.35-2.45q.7-1.1 1.9-1.5l.1-.05.35.05.3.4-.25.15-.25-.05q-.65 0-1.3.65-.9.9-1.3 2.4l-.3 1.8.05.4.05.5.5 1.15.2.15h.05l.15.1h.05l.15.7h-.1l-.2-.05 1.1 1.3q1.7 1.6 4 1.9l.95.5-.15.2.2-.15.15.05-.1-.1.65-.5" fill="#00d988" transform="translate(26.1 -1.9)"/><path d="M-14.75 2.75q.15.05.3.2v.1q-2.75.85-3.15 3.6l-.3.2q-.55-2.55 1.75-3.75l1.4-.35M-19.6 4.8l.15-.2q.55 1 .2 2.3v.05q-.7-.7-.75-1.45v-.05l.25-.5h.1l.05-.15m4.3 5.1-1.75.5-.05-.05.35-.55.05.05V9.8l.2-.25 1.35-.5.4-.05h.1q.1 0 .25.15l.05.05-.25.2-.35.15-.2.2-.15.15m.9-3-.4.15q-2.1.6-2.95 2.4-.15-.85.25-1.5v.55l.05-.05.05-.2.15-.35h.1q.85-.85 1.85-1.35.8-.4 1.7-.55.15.35-.3.65l-.05.05-.3.15-.15.05m-7.55 3.05V10h-.1l.1-.05m9.4 1.6-3.6-.1.05-.05 1.4-1.4q1 .45 1.9 1.3l.25.25m-4.3 10.65q1.6-1.4 1.9-3.25l.05-1.75v-.05l-.05-.6v-.05l-.45-1-.75-.7-.15-.05h-.1l-.1-.05-.1-.05-.5-.1h-.9q-.75.05-1.25.4l-.5.5-.25.5-.1.15-.25.85-.15.55-.05.35-.15.4.05.2q-.05 2.25 2.1 3.75-2.3-.3-4-1.9l-1.1-1.3.2.05h.1l-.15-.7.1.05.15.05q.75.1 1.55-.7l.7-1 .05-.25.2-.55.25-.45v-.05l.05-.1.05-.05.15-.65.2-1.1-.1-.15-.1-.75q-.25-1.15-1.05-1.4h-.1l.25-.15.1.15q1.15 1.35 2.9 2.15l.95.6 1.1.55.45.2.8.6q1.8 1.55 4.15 1.9l.15.2-.45.1q-.45 1.5-1.8 2.75-1.75 1.65-4.05 1.9m-.35-8.2v.05l.2.1-.2-.15m-4.7-3.3v-.05l.4-.1.05.15-.35-.05-.1.05" fill="#82ffd0" transform="translate(26.1 -1.9)"/><path d="M-17.45 11h.05l-.05.05V11m.5-1.55.05-.05.05.05h-.1m-.5-1-.05.05v-.05h.05" fill="#915700" transform="translate(26.1 -1.9)"/><path d="M-17.05 10.4h-.1l.05-.05.05.05m.3-.6.05-.05v.1l-.05-.05m-.3 5.75h.05q1.95 1 .85 1.45l-.85.2-.5-.45q-.2-.85.45-1.2m-4.65-3.3q1.45 1.35-.65 3.1-.35.25-.6-.2-.8-1.4-.15-2.4l.5-.65.4-.25.15.15h.15l.2.25m-1.1 4.15.25-.15.5.2.1.1q-.4 1.05-1.4.4.1-.5.55-.55" fill="#fff" transform="translate(26.1 -1.9)"/><path d="M-19.95 9.75v.05l-.05-.05h.05M-17 12.8l.05-.05v.05H-17m2.3-2.8h.1q1.2.5 2.3 1.6l-.1-.05h-.15l-.25-.25q-.9-.85-1.9-1.3m-4.4 14.1q.5.9.35 2.2l-.05.05q-1.2-.8-.35-2.25h.05m3.55 2.05q-1-.95-.25-2.4.7 1 .35 2.35l-.1.05m-.8-.45q-1.05-.35-.25-1.2.35.45.3 1.1l-.05.1m-1.9-.95v-.05q.45.4.05 1.05l-.05.05q-.55-.6 0-1.05" fill="#ffe064" transform="translate(26.1 -1.9)"/><path d="m-20.1 12 .05.05h-.05V12m2.9 2 .2.15-.2-.1V14" fill="#910003" transform="translate(26.1 -1.9)"/><path d="m-17.45 11.05-.05-.05h.05v.05m.6 0 .3-.2-.15.3-.15-.1m0-1.55-.15-.05h.15v.05M-20.1 12v-.05l.2.3-.15-.2-.05-.05" fill="#fff3c6" transform="translate(26.1 -1.9)"/><path d="m-20.55 17.85.05-.35.15-.55.25-.85.1-.15.25-.5.5-.5q.5-.35 1.25-.4h.9l.5.1.1.05.1.05h.1l.15.05.75.7.45 1v.05l.05.6v.05l-.05 1.75q-.3 1.85-1.9 3.25l-.65.5-.05.05-.05-.05-.95-.5q-2.15-1.5-2.1-3.75l.1-.6m-.85-6.6h.1q.8.25 1.05 1.4l.1.75-.1 1.25-.15.65-.05.05-.05.1v.05l-.25.45-.2.55-.05.25-.7 1q-.8.8-1.55.7l-.15-.05-.1-.05h-.05l-.15-.1h-.05l-.2-.15-.5-1.15-.05-.5-.05-.4.3-1.8q.4-1.5 1.3-2.4.65-.65 1.3-.65l.25.05m5.25 5.75q1.1-.45-.85-1.45h-.05l-1.1-.55q-1.8 1.8-.05 3.5l1 .05q.95-.85 1.05-1.55m-1.55 4.35q1.55-.6.45-1.35h-.1q-.8.45-.45 1.35h.1m-4-9.1-.2-.25h-.15l-.15-.15-.4.25-.5.65q-.65 1 .15 2.4.25.45.6.2 2.1-1.75.65-3.1m-1.1 4.15q-.45.05-.55.55 1 .65 1.4-.4l-.1-.1-.5-.2-.25.15" fill="#152728" transform="translate(26.1 -1.9)"/><path d="m-17.6 22.7.05.05.05-.05.1.1-.15-.05-.2.15.15-.2" fill="#254345" transform="translate(26.1 -1.9)"/><path d="M-17.05 15.55q-.65.35-.45 1.2l.5.45.85-.2q-.1.7-1.05 1.55l-1-.05q-1.75-1.7.05-3.5l1.1.55m-.65 5.8h-.1q-.35-.9.45-1.35h.1q1.1.75-.45 1.35" fill="#99b3b5" transform="translate(26.1 -1.9)"/></g></defs></svg>

<?xml version="1.0" encoding="UTF-8" standalone="no"?>
<svg xmlns:xlink="http://www.w3.org/1999/xlink" height="65.4px" width="80.15px" xmlns="http://www.w3.org/2000/svg">
  <g transform="matrix(1.0, 0.0, 0.0, 1.0, 31.6, 13.8)">
    <use height="25.55" transform="matrix(1.0, 0.0, 0.0, 1.0, -26.1, 1.9)" width="16.95" xlink:href="#shape0"/>
  </g>
  <defs>
    <g id="shape0" transform="matrix(1.0, 0.0, 0.0, 1.0, 26.1, -1.9)">
      <path d="M-16.15 3.1 Q-18.45 4.15 -18.25 7.85 L-18.35 8.45 Q-18.8 7.4 -18.7 6.45 L-19.1 4.95 -19.3 4.35 -19.6 4.8 -19.65 4.95 -19.75 4.95 -20.0 5.45 -20.0 5.5 Q-20.2 6.1 -20.0 6.8 -19.75 7.05 -19.75 7.6 L-19.4 8.2 -19.5 8.3 -19.95 7.8 Q-20.35 7.55 -20.55 6.9 L-20.95 6.85 Q-21.35 7.8 -20.5 8.65 L-20.05 9.15 -19.05 8.95 -18.7 9.45 -18.8 9.45 -19.25 9.55 -19.75 9.7 -19.95 9.75 -20.0 9.75 -19.95 9.8 -19.95 9.85 -19.75 10.1 -18.2 11.75 -18.1 11.6 -18.05 11.55 -17.55 12.45 -17.5 12.5 -17.2 12.7 -17.0 12.8 -16.95 12.8 -16.95 12.75 Q-16.9 11.75 -17.45 11.05 L-17.4 11.0 -17.2 10.8 -17.2 10.75 -17.1 11.05 -17.05 11.1 -17.0 11.1 -16.85 11.05 -16.7 11.15 -16.55 10.85 -16.3 10.7 -16.1 10.55 -15.3 9.9 -15.15 9.75 -14.95 9.55 -14.6 9.4 -14.35 9.2 -14.4 9.15 Q-14.55 9.0 -14.65 9.0 L-14.75 9.0 -15.15 9.05 -16.5 9.55 -16.7 9.8 -16.7 9.75 -16.75 9.5 -16.85 9.5 -16.85 9.45 -16.9 9.4 -16.15 8.4 -16.15 8.35 Q-15.45 7.5 -14.4 6.9 L-14.25 6.85 -13.95 6.7 -13.9 6.65 Q-13.45 6.35 -13.6 6.0 -14.5 6.15 -15.3 6.55 -16.3 7.05 -17.15 7.9 L-16.65 7.25 -16.75 7.3 -16.95 7.4 -17.0 7.35 -17.25 7.9 -17.4 8.25 -17.45 8.45 -17.5 8.45 -17.45 7.5 -15.95 4.65 -15.65 4.35 -14.95 3.85 Q-14.2 3.3 -13.95 2.7 L-14.75 2.75 -16.15 3.1 M-21.95 9.95 L-21.95 9.85 -21.9 9.7 -21.85 9.55 -21.55 9.3 -21.35 9.3 -21.2 9.25 -20.7 9.15 -20.45 9.3 -20.35 9.25 -20.7 9.15 Q-21.6 8.65 -21.55 7.05 -21.5 6.55 -21.0 6.45 L-20.5 6.5 Q-20.65 5.4 -19.9 4.15 L-19.6 3.9 Q-18.7 4.3 -18.45 5.15 -18.0 4.0 -16.85 2.9 L-16.35 2.45 -15.8 2.15 -15.75 2.1 -15.3 1.95 -15.15 1.9 -13.75 2.05 -13.6 2.1 Q-14.15 4.3 -16.15 6.35 L-16.7 6.95 -16.55 7.15 Q-15.75 6.15 -14.65 5.5 L-14.15 5.3 -13.05 5.45 -13.0 5.5 Q-13.45 7.2 -14.95 8.6 L-14.6 8.45 Q-13.9 8.3 -13.55 8.95 L-13.55 9.0 -14.25 9.6 -14.05 9.7 -13.95 9.75 -11.95 11.25 -11.85 11.35 -11.7 11.25 Q-11.65 11.1 -11.45 11.1 -8.85 13.35 -9.2 17.0 L-9.2 17.1 Q-9.25 17.45 -9.45 17.35 L-9.75 19.25 Q-8.7 22.0 -11.8 22.8 L-11.95 22.95 -13.75 24.4 -14.15 24.6 -14.5 24.75 -14.45 25.1 -14.45 25.15 Q-14.45 26.3 -16.2 27.3 -16.6 27.55 -16.85 27.05 L-17.4 25.5 -17.4 25.45 -17.5 25.45 -17.55 25.7 Q-17.75 26.55 -19.15 27.35 -19.5 27.6 -19.75 27.1 -20.3 26.1 -20.3 25.3 L-20.3 25.1 -20.3 25.05 -20.45 25.0 -20.6 24.9 -21.0 24.75 Q-22.45 24.15 -23.6 22.95 L-23.75 22.8 Q-26.4 22.5 -26.05 19.55 L-25.85 18.9 -26.05 17.15 -26.0 16.4 -25.65 14.65 -25.35 13.85 -25.1 13.25 -24.2 11.95 -23.6 11.25 -23.0 10.7 -22.4 10.3 -22.05 10.0 -21.95 10.0 -21.95 9.95 M-20.1 11.95 L-20.1 12.0 -20.1 12.05 -20.05 12.05 -19.9 12.25 -20.1 11.95 M-14.7 10.0 L-16.1 11.4 -16.15 11.45 -12.55 11.55 -12.4 11.55 -12.3 11.6 Q-13.4 10.5 -14.6 10.0 L-14.65 10.0 -14.7 10.0 M-10.55 17.45 L-10.7 17.25 Q-13.05 16.9 -14.85 15.35 L-15.65 14.75 -16.1 14.55 -17.2 14.0 -18.15 13.4 Q-19.9 12.6 -21.05 11.25 L-21.15 11.1 -21.45 10.7 -21.5 10.55 -21.9 10.65 -21.9 10.7 Q-23.1 11.1 -23.8 12.2 L-25.15 14.65 Q-25.85 16.35 -25.2 17.8 L-25.0 19.05 -25.05 19.2 Q-26.2 21.4 -23.95 22.1 -23.9 21.95 -24.0 21.8 L-24.3 21.15 -24.3 20.8 -23.05 22.35 -22.9 22.5 -22.55 22.8 -22.25 23.05 -21.9 23.3 -20.55 24.05 -20.3 24.15 -20.1 24.2 -20.05 24.25 Q-19.7 23.7 -18.95 23.3 -18.05 23.95 -17.7 24.6 L-17.65 24.6 -17.55 24.6 -17.3 24.6 -17.25 24.5 Q-17.05 23.55 -16.0 22.95 L-15.25 23.6 -14.85 24.1 -14.45 23.9 -14.1 23.75 -12.3 22.35 -10.75 20.3 -10.95 21.55 -10.85 21.55 Q-9.3 20.6 -10.4 19.35 L-10.05 17.4 -10.25 17.4 -10.3 17.4 -10.55 17.45 M-20.15 13.4 L-20.05 13.55 -20.25 14.65 -20.15 13.4 M-20.65 18.45 L-20.7 18.25 -20.55 17.85 -20.65 18.45 M-19.1 24.1 L-19.15 24.1 Q-20.0 25.55 -18.8 26.35 L-18.75 26.3 Q-18.6 25.0 -19.1 24.1 M-18.25 24.75 Q-18.8 25.2 -18.25 25.8 L-18.2 25.75 Q-17.8 25.1 -18.25 24.7 L-18.25 24.75 M-16.35 25.7 L-16.3 25.6 Q-16.25 24.95 -16.6 24.5 -17.4 25.35 -16.35 25.7 M-15.55 26.15 L-15.45 26.1 Q-15.1 24.75 -15.8 23.75 -16.55 25.2 -15.55 26.15" fill="#34241c" fill-rule="evenodd" stroke="none"/>
      <path d="M-16.15 3.1 Q-18.45 4.3 -17.9 6.85 L-17.6 6.65 Q-17.2 3.9 -14.45 3.05 L-14.45 2.95 Q-14.6 2.8 -14.75 2.75 L-13.95 2.7 Q-14.2 3.3 -14.95 3.85 L-15.65 4.35 -15.95 4.65 -17.45 7.5 -17.5 8.45 -17.5 7.95 Q-17.9 8.6 -17.75 9.45 -16.9 7.65 -14.8 7.05 L-14.4 6.9 Q-15.45 7.5 -16.15 8.35 L-16.15 8.4 -16.9 9.4 -16.95 9.45 -17.0 9.45 -16.85 9.5 -16.75 9.5 -16.7 9.75 -16.75 9.8 -17.1 10.35 -17.15 10.4 -17.05 10.4 -15.3 9.9 -16.1 10.55 -16.3 10.7 -16.55 10.85 -16.85 11.05 -17.0 11.1 -17.05 11.1 -17.1 11.05 -17.2 10.75 -17.2 10.8 -17.4 11.0 -17.45 11.0 -17.5 11.0 -17.45 11.05 Q-16.9 11.75 -16.95 12.75 L-17.0 12.8 -17.2 12.7 -17.5 12.5 -17.55 12.45 -18.05 11.55 -18.1 11.6 -18.2 11.75 -19.75 10.1 -19.95 9.85 -19.95 9.8 -19.95 9.75 -19.75 9.7 -19.25 9.55 -18.8 9.45 -18.7 9.45 -19.05 8.95 -20.05 9.15 -20.5 8.65 Q-21.35 7.8 -20.95 6.85 L-20.55 6.9 Q-20.35 7.55 -19.95 7.8 L-19.5 8.3 -19.4 8.2 -19.75 7.6 Q-19.75 7.05 -20.0 6.8 -20.2 6.1 -20.0 5.5 -19.95 6.25 -19.25 6.95 L-19.25 6.9 Q-18.9 5.6 -19.45 4.6 L-19.6 4.8 -19.3 4.35 -19.1 4.95 -18.7 6.45 Q-18.8 7.4 -18.35 8.45 L-18.25 7.85 Q-18.45 4.15 -16.15 3.1 M-16.85 22.2 Q-14.55 21.95 -12.8 20.3 -11.45 19.05 -11.0 17.55 L-10.55 17.45 -10.3 17.4 -10.25 17.4 -10.05 17.4 -10.4 19.35 Q-9.3 20.6 -10.85 21.55 L-10.95 21.55 -10.75 20.3 -12.3 22.35 -14.1 23.75 -14.45 23.9 -14.85 24.1 -15.25 23.6 -16.0 22.95 Q-17.05 23.55 -17.25 24.5 L-17.3 24.6 -17.55 24.6 -17.65 24.6 -17.7 24.6 Q-18.05 23.95 -18.95 23.3 -19.7 23.7 -20.05 24.25 L-20.1 24.2 -20.3 24.15 -20.55 24.05 -21.9 23.3 -22.25 23.05 -22.55 22.8 -22.9 22.5 -23.05 22.35 -24.3 20.8 -24.3 21.15 -24.0 21.8 Q-23.9 21.95 -23.95 22.1 -26.2 21.4 -25.05 19.2 L-25.0 19.05 -25.2 17.8 Q-25.85 16.35 -25.15 14.65 L-23.8 12.2 Q-23.1 11.1 -21.9 10.7 L-21.8 10.65 -21.45 10.7 -21.15 11.1 -21.4 11.25 -21.65 11.2 Q-22.3 11.2 -22.95 11.85 -23.85 12.75 -24.25 14.25 L-24.55 16.05 -24.5 16.45 -24.45 16.95 -23.95 18.1 -23.75 18.25 -23.7 18.25 -23.55 18.35 -23.5 18.35 -23.35 19.05 -23.45 19.05 -23.65 19.0 -22.55 20.3 Q-20.85 21.9 -18.55 22.2 L-17.6 22.7 -17.75 22.9 -17.55 22.75 -17.4 22.8 -17.5 22.7 -16.85 22.2" fill="#00d988" fill-rule="evenodd" stroke="none"/>
      <path d="M-14.75 2.75 Q-14.6 2.8 -14.45 2.95 L-14.45 3.05 Q-17.2 3.9 -17.6 6.65 L-17.9 6.85 Q-18.45 4.3 -16.15 3.1 L-14.75 2.75 M-19.6 4.8 L-19.45 4.6 Q-18.9 5.6 -19.25 6.9 L-19.25 6.95 Q-19.95 6.25 -20.0 5.5 L-20.0 5.45 -19.75 4.95 -19.65 4.95 -19.6 4.8 M-15.3 9.9 L-17.05 10.4 -17.1 10.35 -16.75 9.8 -16.7 9.85 -16.7 9.8 -16.5 9.55 -15.15 9.05 -14.75 9.0 -14.65 9.0 Q-14.55 9.0 -14.4 9.15 L-14.35 9.2 -14.6 9.4 -14.95 9.55 -15.15 9.75 -15.3 9.9 M-14.4 6.9 L-14.8 7.05 Q-16.9 7.65 -17.75 9.45 -17.9 8.6 -17.5 7.95 L-17.5 8.45 -17.5 8.5 -17.45 8.45 -17.4 8.25 -17.25 7.9 -17.15 7.9 Q-16.3 7.05 -15.3 6.55 -14.5 6.15 -13.6 6.0 -13.45 6.35 -13.9 6.65 L-13.95 6.7 -14.25 6.85 -14.4 6.9 M-21.95 9.95 L-21.95 10.0 -22.05 10.0 -21.95 9.95 M-12.55 11.55 L-16.15 11.45 -16.1 11.4 -14.7 10.0 Q-13.7 10.45 -12.8 11.3 L-12.55 11.55 M-16.85 22.2 Q-15.25 20.8 -14.95 18.95 L-14.9 17.2 -14.9 17.15 -14.95 16.55 -14.95 16.5 -15.4 15.5 -16.15 14.8 -16.3 14.75 -16.4 14.75 -16.5 14.7 -16.6 14.65 -17.1 14.55 -17.4 14.55 -17.55 14.55 -17.75 14.55 -17.8 14.55 -18.0 14.55 Q-18.75 14.6 -19.25 14.95 L-19.75 15.45 -20.0 15.95 -20.1 16.1 -20.35 16.95 -20.5 17.5 -20.55 17.85 -20.7 18.25 -20.65 18.45 Q-20.7 20.7 -18.55 22.2 -20.85 21.9 -22.55 20.3 L-23.65 19.0 -23.45 19.05 -23.35 19.05 -23.5 18.35 -23.4 18.4 -23.25 18.45 Q-22.5 18.55 -21.7 17.75 L-21.0 16.75 -20.95 16.5 -20.75 15.95 -20.5 15.5 -20.5 15.45 -20.45 15.35 -20.4 15.3 -20.25 14.65 -20.05 13.55 -20.15 13.4 -20.25 12.65 Q-20.5 11.5 -21.3 11.25 L-21.4 11.25 -21.15 11.1 -21.05 11.25 Q-19.9 12.6 -18.15 13.4 L-17.2 14.0 -16.1 14.55 -15.65 14.75 -14.85 15.35 Q-13.05 16.9 -10.7 17.25 L-10.55 17.45 -11.0 17.55 Q-11.45 19.05 -12.8 20.3 -14.55 21.95 -16.85 22.2 M-17.2 14.0 L-17.2 14.05 -17.0 14.15 -17.2 14.0 M-21.9 10.7 L-21.9 10.65 -21.5 10.55 -21.45 10.7 -21.8 10.65 -21.9 10.7" fill="#82ffd0" fill-rule="evenodd" stroke="none"/>
      <path d="M-17.45 11.0 L-17.4 11.0 -17.45 11.05 -17.45 11.0 M-16.95 9.45 L-16.9 9.4 -16.85 9.45 -16.95 9.45 M-17.45 8.45 L-17.5 8.5 -17.5 8.45 -17.45 8.45" fill="#915700" fill-rule="evenodd" stroke="none"/>
      <path d="M-17.05 10.4 L-17.15 10.4 -17.1 10.35 -17.05 10.4 M-16.75 9.8 L-16.7 9.75 -16.7 9.8 -16.7 9.85 -16.75 9.8 M-17.05 15.55 L-17.0 15.55 Q-15.05 16.55 -16.15 17.0 L-17.0 17.2 -17.5 16.75 Q-17.7 15.9 -17.05 15.55 M-21.7 12.25 Q-20.25 13.6 -22.35 15.35 -22.7 15.6 -22.95 15.15 -23.75 13.75 -23.1 12.75 L-22.6 12.1 -22.2 11.85 -22.05 12.0 -21.9 12.0 -21.7 12.25 M-22.8 16.4 L-22.55 16.25 -22.05 16.45 -21.95 16.55 Q-22.35 17.6 -23.35 16.95 -23.25 16.45 -22.8 16.4" fill="#ffffff" fill-rule="evenodd" stroke="none"/>
      <path d="M-19.95 9.75 L-19.95 9.8 -20.0 9.75 -19.95 9.75 M-17.0 12.8 L-16.95 12.75 -16.95 12.8 -17.0 12.8 M-14.7 10.0 L-14.65 10.0 -14.6 10.0 Q-13.4 10.5 -12.3 11.6 L-12.4 11.55 -12.55 11.55 -12.8 11.3 Q-13.7 10.45 -14.7 10.0 M-19.1 24.1 Q-18.6 25.0 -18.75 26.3 L-18.8 26.35 Q-20.0 25.55 -19.15 24.1 L-19.1 24.1 M-15.55 26.15 Q-16.55 25.2 -15.8 23.75 -15.1 24.75 -15.45 26.1 L-15.55 26.15 M-16.35 25.7 Q-17.4 25.35 -16.6 24.5 -16.25 24.95 -16.3 25.6 L-16.35 25.7 M-18.25 24.75 L-18.25 24.7 Q-17.8 25.1 -18.2 25.75 L-18.25 25.8 Q-18.8 25.2 -18.25 24.75" fill="#ffe064" fill-rule="evenodd" stroke="none"/>
      <path d="M-20.1 12.0 L-20.05 12.05 -20.1 12.05 -20.1 12.0 M-17.2 14.0 L-17.0 14.15 -17.2 14.05 -17.2 14.0" fill="#910003" fill-rule="evenodd" stroke="none"/>
      <path d="M-17.45 11.05 L-17.5 11.0 -17.45 11.0 -17.45 11.05 M-16.85 11.05 L-16.55 10.85 -16.7 11.15 -16.85 11.05 M-16.85 9.5 L-17.0 9.45 -16.95 9.45 -16.85 9.45 -16.85 9.5 M-20.1 12.0 L-20.1 11.95 -19.9 12.25 -20.05 12.05 -20.1 12.0" fill="#fff3c6" fill-rule="evenodd" stroke="none"/>
      <path d="M-20.55 17.85 L-20.5 17.5 -20.35 16.95 -20.1 16.1 -20.0 15.95 -19.75 15.45 -19.25 14.95 Q-18.75 14.6 -18.0 14.55 L-17.8 14.55 -17.75 14.55 -17.55 14.55 -17.4 14.55 -17.1 14.55 -16.6 14.65 -16.5 14.7 -16.4 14.75 -16.3 14.75 -16.15 14.8 -15.4 15.5 -14.95 16.5 -14.95 16.55 -14.9 17.15 -14.9 17.2 -14.95 18.95 Q-15.25 20.8 -16.85 22.2 L-17.5 22.7 -17.55 22.75 -17.6 22.7 -18.55 22.2 Q-20.7 20.7 -20.65 18.45 L-20.55 17.85 M-21.4 11.25 L-21.3 11.25 Q-20.5 11.5 -20.25 12.65 L-20.15 13.4 -20.25 14.65 -20.4 15.3 -20.45 15.35 -20.5 15.45 -20.5 15.5 -20.75 15.95 -20.95 16.5 -21.0 16.75 -21.7 17.75 Q-22.5 18.55 -23.25 18.45 L-23.4 18.4 -23.5 18.35 -23.55 18.35 -23.7 18.25 -23.75 18.25 -23.95 18.1 -24.45 16.95 -24.5 16.45 -24.55 16.05 -24.25 14.25 Q-23.85 12.75 -22.95 11.85 -22.3 11.2 -21.65 11.2 L-21.4 11.25 M-16.15 17.0 Q-15.05 16.55 -17.0 15.55 L-17.05 15.55 -18.15 15.0 Q-19.95 16.8 -18.2 18.5 L-17.2 18.55 Q-16.25 17.7 -16.15 17.0 M-17.7 21.35 Q-16.15 20.75 -17.25 20.0 L-17.35 20.0 Q-18.15 20.45 -17.8 21.35 L-17.7 21.35 M-21.7 12.25 L-21.9 12.0 -22.05 12.0 -22.2 11.85 -22.6 12.1 -23.1 12.75 Q-23.75 13.75 -22.95 15.15 -22.7 15.6 -22.35 15.35 -20.25 13.6 -21.7 12.25 M-22.8 16.4 Q-23.25 16.45 -23.35 16.95 -22.35 17.6 -21.95 16.55 L-22.05 16.45 -22.55 16.25 -22.8 16.4" fill="#152728" fill-rule="evenodd" stroke="none"/>
      <path d="M-17.6 22.7 L-17.55 22.75 -17.5 22.7 -17.4 22.8 -17.55 22.75 -17.75 22.9 -17.6 22.7" fill="#254345" fill-rule="evenodd" stroke="none"/>
      <path d="M-17.05 15.55 Q-17.7 15.9 -17.5 16.75 L-17.0 17.2 -16.15 17.0 Q-16.25 17.7 -17.2 18.55 L-18.2 18.5 Q-19.95 16.8 -18.15 15.0 L-17.05 15.55 M-17.7 21.35 L-17.8 21.35 Q-18.15 20.45 -17.35 20.0 L-17.25 20.0 Q-16.15 20.75 -17.7 21.35" fill="#99b3b5" fill-rule="evenodd" stroke="none"/>
    </g>
  </defs>
</svg>
